src/icons/svg/email-set.svg

<?xml version="1.0" encoding="UTF-8"?>
<svg width="40px" height="36px" viewBox="0 0 40 36" version="1.1" xmlns="http://www.w3.org/2000/svg"
>
    <path d="M15.7201808,26.2003013 L3.49381018,26.2003013 L3.49381018,11.8779066 L17.2921989,19.213991 C19.562455,14.6721687 24.2785092,11.5281326 29.6941115,11.5281326 C31.6159036,11.5281326 33.3621537,11.8779066 34.9341717,12.5761446 L34.9341717,0 L0,0 L0,29.6941115 L16.4184188,29.6941115 C16.0686448,28.6460994 15.8944128,27.4238554 15.7201808,26.2003013 Z M3.49381018,3.49381018 L31.4403616,3.49381018 L31.4403616,7.68585839 L17.4664309,15.0219428 L3.49250016,7.68585839 L3.49250016,3.49381018 L3.49381018,3.49381018 Z"
          id="形状"></path>
    <path d="M32.3141416,20.436235 L32.6639156,20.960241 L34.5857077,24.4540512 L34.9354818,24.9780572 L34.5857077,25.5020633 L32.6639156,28.9958735 L32.3141416,29.5198795 L26.8998493,29.5198795 L26.5500753,28.9958735 L24.6282832,25.5020633 L24.4540512,24.9780572 L24.8038252,24.4540512 L26.7256173,20.960241 L27.0753914,20.436235 L32.3154516,20.436235 L32.3141416,20.436235 Z M33.1866116,15.0219428 C32.8368376,15.0219428 32.6626056,15.1961748 32.4883736,15.5459488 L31.6145936,16.9437349 L27.5967774,16.9437349 L26.7229973,15.5459488 C26.5487653,15.1961748 26.1989913,15.0219428 26.0247593,15.0219428 C25.8505273,15.0219428 25.6749853,15.0219428 25.5007533,15.1961748 L23.0549551,16.7681928 C22.7051811,16.9424248 22.5309491,17.4664309 22.7051811,17.9904369 L23.5789612,19.388223 L21.6571691,22.8820331 L20.085151,22.8820331 C19.561145,22.8820331 19.2113709,23.2318072 19.2113709,23.7558132 L19.2113709,26.5500753 C19.2113709,27.0740814 19.561145,27.4238554 20.085151,27.4238554 L21.6571691,27.4238554 L23.5789612,30.9176656 L22.7051811,32.3154516 C22.4767734,32.7509108 22.6307588,33.2889946 23.0549551,33.5376957 L25.5007533,35.1097138 C25.6749853,35.1097138 25.8505273,35.2839458 26.0247593,35.2839458 C26.3745333,35.2839458 26.5487653,35.1097138 26.7229973,34.7599397 L27.5967774,33.3621537 L31.6145936,33.3621537 L32.4883736,34.7599397 C32.6626056,35.1097138 33.0123796,35.2839458 33.1866116,35.2839458 C33.3608436,35.2839458 33.5363857,35.2839458 33.7106177,35.1097138 L36.1564158,33.5376957 C36.5061898,33.3634637 36.6804218,32.8394577 36.5061898,32.3154516 L35.6324098,30.9176656 L37.5542019,27.4238554 L39.12622,27.4238554 C39.650226,27.4238554 40,27.0740814 40,26.5500753 L40,23.7558132 C40,23.2318072 39.650226,22.8820331 39.12622,22.8820331 L37.5542019,22.8820331 L35.6324098,19.388223 L36.5061898,17.9904369 C36.7345975,17.5549777 36.5806122,17.0168939 36.1564158,16.7681928 L33.7106177,15.1961748 C33.5363857,15.0219428 33.3608436,15.0219428 33.1866116,15.0219428 L33.1866116,15.0219428 Z"
          id="形状"></path>
    <polygon id="路径"
             points="33.1866116 24.9780572 31.4403616 28.1220934 27.9465514 28.1220934 26.2003013 24.9780572 27.9465514 22.0082531 31.4403616 22.0082531"></polygon>
</svg>

<svg width="40" height="36" xmlns="http://www.w3.org/2000/svg"><path d="M15.72 26.2H3.494V11.878l13.798 7.336c2.27-4.542 6.987-7.686 12.402-7.686 1.922 0 3.668.35 5.24 1.048V0H0v29.694h16.418c-.35-1.048-.524-2.27-.698-3.494zM3.494 3.494H31.44v4.192l-13.974 7.336L3.493 7.686V3.494z"/><path d="M32.314 20.436l.35.524 1.922 3.494.35.524-.35.524-1.922 3.494-.35.524H26.9l-.35-.524-1.922-3.494-.174-.524.35-.524 1.922-3.494.35-.524h5.24-.002zm.873-5.414c-.35 0-.524.174-.699.524l-.873 1.398h-4.018l-.874-1.398c-.174-.35-.524-.524-.698-.524-.174 0-.35 0-.524.174l-2.446 1.572c-.35.174-.524.698-.35 1.222l.874 1.398-1.922 3.494h-1.572c-.524 0-.874.35-.874.874v2.794c0 .524.35.874.874.874h1.572l1.922 3.494-.874 1.397a.92.92 0 0 0 .35 1.223l2.446 1.572c.174 0 .35.174.524.174.35 0 .524-.174.698-.524l.874-1.398h4.018l.873 1.398c.175.35.524.524.699.524.174 0 .35 0 .524-.174l2.445-1.572c.35-.175.524-.699.35-1.223l-.874-1.397 1.922-3.494h1.572c.524 0 .874-.35.874-.874v-2.794c0-.524-.35-.874-.874-.874h-1.572l-1.922-3.494.874-1.398a.92.92 0 0 0-.35-1.222l-2.445-1.572c-.175-.174-.35-.174-.524-.174z"/><path d="M33.187 24.978l-1.747 3.144h-3.493L26.2 24.978l1.747-2.97h3.493z"/></svg>
